assets/images/ico_done.svg

<svg width="57" height="57" viewBox="0 0 57 57" fill="none" xmlns="http://www.w3.org/2000/svg">
<path d="M28.5 0C12.7848 0 0 12.7848 0 28.5C0 44.2152 12.7848 57 28.5 57C44.2152 57 57 44.2152 57 28.5C57 12.7848 44.2152 0 28.5 0ZM28.5 54.5401C14.1411 54.5401 2.4591 42.8581 2.4591 28.4993C2.4591 14.1404 14.1411 2.4591 28.5 2.4591C42.8589 2.4591 54.5409 14.1411 54.5409 28.5C54.5409 42.8589 42.8589 54.5401 28.5 54.5401ZM42.3741 18.4945C42.8544 18.9748 42.8544 19.7536 42.3741 20.2339L24.1025 38.5055C23.8623 38.7456 23.5474 38.8661 23.2332 38.8661C22.919 38.8661 22.604 38.7456 22.3638 38.5055L14.6252 30.7683C14.1449 30.288 14.1449 29.5092 14.6252 29.0289C15.1055 28.5486 15.8843 28.5486 16.3646 29.0289L23.2324 35.8968L40.6347 18.4945C41.1157 18.0142 41.8938 18.0142 42.3741 18.4945Z" fill="#DB4028"/>
</svg>

<svg width="57" height="57" fill="none" xmlns="http://www.w3.org/2000/svg"><path d="M28.5 0C12.785 0 0 12.785 0 28.5S12.785 57 28.5 57 57 44.215 57 28.5 44.215 0 28.5 0zm0 54.54c-14.359 0-26.04-11.682-26.04-26.04 0-14.36 11.68-26.04 26.04-26.04S54.54 14.14 54.54 28.5 42.86 54.54 28.5 54.54zm13.874-36.046c.48.48.48 1.26 0 1.74L24.102 38.505a1.227 1.227 0 01-1.738 0l-7.739-7.737a1.23 1.23 0 011.74-1.74l6.867 6.869 17.403-17.402a1.23 1.23 0 011.74 0z" fill="#DB4028"/></svg>
